icon/ir/bus-stop.svg

<svg stroke-width="1.5" viewBox="0 0 24 24" fill="none" xmlns="http://www.w3.org/2000/svg" height="1em" width="1em">
  <path d="M16 16.01L16.01 15.9989" stroke="currentColor" stroke-linecap="round" stroke-linejoin="round"/>
  <path d="M6 16.01L6.01 15.9989" stroke="currentColor" stroke-linecap="round" stroke-linejoin="round"/>
  <path d="M20 22V15V8M20 8H18L18 2H22V8H20Z" stroke="currentColor" stroke-linecap="round" stroke-linejoin="round"/>
  <path d="M4 20V22H6V20H4Z" fill="currentColor" stroke="currentColor" stroke-linecap="round" stroke-linejoin="round"/>
  <path d="M14 20V22H16V20H14Z" fill="currentColor" stroke="currentColor" stroke-linecap="round" stroke-linejoin="round"/>
  <path d="M16 20H2.6C2.26863 20 2 19.7314 2 19.4V12.6C2 12.2686 2.26863 12 2.6 12H16" stroke="currentColor" stroke-linecap="round" stroke-linejoin="round"/>
  <path d="M14 8H6M14 2H6C3.79086 2 2 3.79086 2 6V8" stroke="currentColor" stroke-linecap="round" stroke-linejoin="round"/>
</svg>

<svg width="24" height="24" stroke-width="1.5" fill="none" xmlns="http://www.w3.org/2000/svg"><path d="m16 16.01.01-.011M6 16.01l.01-.011M20 22V8m0 0h-2V2h4v6h-2Z" stroke="currentColor" stroke-linecap="round" stroke-linejoin="round"/><path d="M4 20v2h2v-2H4ZM14 20v2h2v-2h-2Z" fill="currentColor" stroke="currentColor" stroke-linecap="round" stroke-linejoin="round"/><path d="M16 20H2.6a.6.6 0 0 1-.6-.6v-6.8a.6.6 0 0 1 .6-.6H16M14 8H6m8-6H6a4 4 0 0 0-4 4v2" stroke="currentColor" stroke-linecap="round" stroke-linejoin="round"/></svg>
